!!!COM: Palestrina, Giovanni Perluigi da
!!!OPR: Ave regina coelorum
!!!OTL: Credo
**kern	**kern	**kern	**kern
*Ibass	*Itenor	*Icalto	*Icant
!Bassus	!Tenor	!Altus	!Cantus
*clefF4	*clefGv2	*clefG2	*clefG2
*k[]	*k[]	*k[]	*k[]
*C:ion	*C:ion	*C:ion	*C:ion
*M4/2	*M4/2	*M4/2	*M4/2
=1	=1	=1	=1
0r	1r	1f	0r
.	1c	1e	.
=2	=2	=2	=2
0r	1B	1d	0r
.	1A	2e	.
.	.	2c	.
=3	=3	=3	=3
0r	2B	2.d	0r
.	2G	.	.
.	.	4e	.
.	2.A	4f	.
.	.	4g	.
.	.	[2a	.
.	4B	.	.
=4	=4	=4	=4
0r	4c	2a]	1cc
.	4d	.	.
.	2.e	2.g	.
.	.	.	1b
.	4d	4f	.
.	2B	2d	.
=5	=5	=5	=5
0r	2c	2e	1a
.	2d	2f#	.
.	2G	1g	2b
.	[2g	.	2g
=6	=6	=6	=6
1r	4g]	1d	2.a
.	8f#	.	.
.	8e	.	.
.	2f#	.	.
.	.	.	4b
1c	2g	2.e	4cc
.	.	.	4dd
.	2c	.	[2ee
.	.	4f	.
=7	=7	=7	=7
1B	1d	1g	4ee]
.	.	.	4dd
.	.	.	1dd
1A	1e	1a	.
.	.	.	2cc#
=8	=8	=8	=8
2B	2.g	1d	2dd
2G	.	.	2b
.	4f	.	.
2.A	4e	2.c	[1cc
.	4d	.	.
.	4c	.	.
4B	4B	4d	.
=9	=9	=9	=9
2c	2A	4e	2cc]
.	.	4f	.
2.d	2G	2g	2b
.	2A	2e	1a
4c	.	.	.
[2c	2F	2f	.
=10	=10	=10	=10
2c]	1G	1d	0g
2B	.	.	.
1c	2r	2e	.
.	2c	2g	.
=11	=11	=11	=11
1r	2f	2a	2r
.	2f	2a	2cc
1G	1d	1b	2dd
.	.	.	2dd
=12	=12	=12	=12
2c	1c	2cc	1ee
2c	.	2g	.
1A	2r	2a	2ee
.	2c	2a	2ff
=13	=13	=13	=13
1G	2d	1b	1gg
.	2d	.	.
2.E	1e	2b	1g
.	.	2cc	.
4F	.	.	.
=14	=14	=14	=14
2G	2d	2b	0r
2A	2.f	2.a	.
1E	.	.	.
.	4e	4g	.
.	[2e	2g	.
=15	=15	=15	=15
1F	2e]	1a	1r
.	2d	.	.
2C	1e	[1g	1cc
[2c	.	.	.
=16	=16	=16	=16
2c]	1d	1g]	1dd
2B	.	.	.
1c	2c	2r	2.ee
.	2e	2g	.
.	.	.	4ee
=17	=17	=17	=17
0r	2f	2a	1dd
.	2.g	2.b	.
.	.	.	2ee
.	4g	4b	.
.	2f	2a	[2ff
=18	=18	=18	=18
0r	2g	2b	4ff]
.	.	.	4ee
.	2a	2cc	1ee
.	1f	1a	.
.	.	.	2dd
=19	=19	=19	=19
1c	0e	1g	1ee
1A	.	1a	2r
.	.	.	2cc
=20	=20	=20	=20
1G	1r	2.b	1dd
.	.	4b	.
2C	1c	2cc	2.ee
[2c	.	2g	.
.	.	.	4ee
=21	=21	=21	=21
2c]	1d	1g	2dd
2B	.	.	2dd
2c	2.e	2r	2g
2c	.	[2g	2gg
.	4e	.	.
=22	=22	=22	=22
2B	2d	2g]	4gg
.	.	.	4ff
4c	2e	2g	4ee
4B	.	.	4dd
4A	[1f	[1a	2cc
4G	.	.	.
4F	.	.	2cc
4E	.	.	.
=23	=23	=23	=23
2D	2f]	2a]	2dd
2E	2e	2g	1cc
2F	1d	2a	.
2G	.	2g	2b
=24	=24	=24	=24
1C	1c	2g	2.cc
.	.	1cc	.
.	.	.	4b
[1F	1r	.	2a
.	.	2b	2g
=25	=25	=25	=25
2F]	1.c	0a	1f
2G	.	.	.
2A	.	.	1e
2B	2d	.	.
=26	=26	=26	=26
2.c	2e	1g	0r
.	2e	.	.
4c	.	.	.
1F	2.f	2.a	.
.	4f	4a	.
=27	=27	=27	=27
1c	2e	1g	1r
.	1g	.	.
2B	.	1r	2r
[2A	2f	.	[2cc
=28	=28	=28	=28
4A]	2e	0r	2cc]
4G	.	.	.
2F	2.d	.	2dd
2.E	.	.	2ee
.	4c	.	.
.	[2c	.	2ee
8D	.	.	.
8C	.	.	.
=29	=29	=29	=29
1D	2c]	1r	2.ff
.	2B	.	.
.	.	.	4ff
1C	1c	2r	2ee
.	.	2cc	[2gg
=30	=30	=30	=30
1r	0r	2b	2gg]
.	.	2.a	2ff
1c	.	.	2.ee
.	.	4g	.
.	.	2e	.
.	.	.	4dd
=31	=31	=31	=31
2A	0r	2f	4cc
.	.	.	4a
2B	.	2d	2.dd
1A	.	2e	.
.	.	.	4cc
.	.	4d	[2cc
.	.	4c	.
=32	=32	=32	=32
1G	1g	1d	2cc]
.	.	.	2b
2.A	2e	1c	[1cc
.	2f	.	.
4B	.	.	.
=33	=33	=33	=33
4c	1e	0r	1cc]
4d	.	.	.
1c	.	.	.
.	1d	.	1r
2B	.	.	.
=34	=34	=34	=34
2c	2.e	1g	1r
2c	.	.	.
.	4f	.	.
4c	2g	2e	1cc
4B	.	.	.
4A	[2a	2c	.
4G	.	.	.
=35	=35	=35	=35
2F	2a]	1d	2a
2G	1g	.	2b
1D	.	1d	1a
.	2f#	.	.
=36	=36	=36	=36
1r	4g	1e	1g
.	4f	.	.
.	4e	.	.
.	4d	.	.
2.F	2c	2f	2.a
.	[2f	[2a	.
4G	.	.	4b
=37	=37	=37	=37
2A	2f]	2a]	2cc
2B-	2d	2.g	1dd
2A	2e	.	.
.	.	4f	.
2A	4d	4f	[2cc
.	4c	4e	.
=38	=38	=38	=38
0G	1.d	1.g	2cc]
.	.	.	4b
.	.	.	4a
.	.	.	2b
.	2d	2g	2b
=39	=39	=39	=39
2r	1c	0e	0cc
2.c	.	.	.
.	2r	.	.
4B	.	.	.
4A	[2c	.	.
4G	.	.	.
=40	=40	=40	=40
2A	2c]	0r	0r
2B-	2d	.	.
2G	2e	.	.
4F	2f	.	.
4G	.	.	.
=41	=41	=41	=41
4A	2.e	1r	0r
4B	.	.	.
1c	.	.	.
.	8d	.	.
.	8c	.	.
.	1d	2r	.
2B	.	[2g	.
=42	=42	=42	=42
1c	1e	2g]	1cc
.	.	2a	.
1r	2r	2b	2dd
.	2c	2cc	2ee
=43	=43	=43	=43
0r	2d	2.b	2ff
.	2e	.	2.ee
.	.	8a	.
.	.	8g	.
.	2f	2a	.
.	.	.	4dd
.	2g	2b	2dd
=44	=44	=44	=44
2r	1c	1cc	1ee
1c	.	.	.
.	1g	1r	1r
2B	.	.	.
=45	=45	=45	=45
1A	2f	0r	0r
.	1e	.	.
2G	.	.	.
2F	2d	.	.
=46	=46	=46	=46
2.A	2c	1r	0r
.	1e	.	.
4G	.	.	.
2F	.	2r	.
2F	2d	2a	.
=47	=47	=47	=47
1E	1e	2cc	2r
.	.	2b	2gg
1r	1r	2.a	2ff
.	.	.	2ee
.	.	4g	.
=48	=48	=48	=48
2r	0r	2f	2dd
2c	.	2e	1ee
2A	.	1f	.
2B	.	.	2dd
=49	=49	=49	=49
2.c	2r	1e	1ee
.	2g	.	.
4B	.	.	.
2.A	2f	1r	1r
.	2e	.	.
4G	.	.	.
=50	=50	=50	=50
2F	2d	2r	0r
2E	1e	2cc	.
2F	.	2a	.
2G	2d	2b	.
=51	=51	=51	=51
1C	1e	2.cc	2r
.	.	.	2gg
.	.	4b	.
1r	1r	2.a	2ff
.	.	.	2ee
.	.	4g	.
=52	=52	=52	=52
0r	0r	2f	2dd
.	.	2e	1ee
.	.	2f	.
.	.	2g	2dd
=53	=53	=53	=53
2r	1e	1c	1ee
1c	.	.	.
.	1d	2r	1r
2B	.	2g	.
=54	=54	=54	=54
2c	1e	2g	2r
2A	.	1a	1cc
1d	1f	.	.
.	.	2f	2b
=55	=55	=55	=55
1c	1e	2g	2cc
.	.	1cc	2g
2F	1d	.	2a
2G	.	2b	2b
=56	=56	=56	=56
2.C	0e	2a	2cc
.	.	4g	2.ee
4D	.	4f	.
2.E	.	1g	.
.	.	.	4dd
.	.	.	[2cc
4F	.	.	.
=57	=57	=57	=57
0G	0d	1g	2cc]
.	.	.	4b
.	.	.	4a
.	.	2r	1b
.	.	[2g	.
=58	=58	=58	=58
1C	1c	2g]	[0cc
.	.	2g	.
2r	1r	2f	.
[2c	.	2g	.
=59	=59	=59	=59
2c]	1.g	2.e	1cc]
2c	.	.	.
.	.	8d	.
.	.	8c	.
2B	.	2d	1r
2c	2g	2e	.
=60	=60	=60	=60
2A	2f	2c	0r
2B	2g	2G	.
[1c	2e	1A	.
.	2f	.	.
=61	=61	=61	=61
2c]	1.g	1G	0r
2B	.	.	.
1A	.	2c	.
.	2f	2c	.
=62	=62	=62	=62
1G	2e	1g	0r
.	2d	.	.
2.A	2c	1e	.
.	[2e	.	.
4G	.	.	.
=63	=63	=63	=63
2F	4e]	2r	0r
.	4d	.	.
2G	1d	1g	.
1E	.	.	.
.	2c#	2g	.
=64	=64	=64	=64
1D	1d	1.f#	2r
.	.	.	1dd
1r	2r	.	.
.	2g	2g	2dd
=65	=65	=65	=65
0r	2g	2e	2cc
.	2f#	2d	2dd
.	2g	4e	2b
.	.	4d	.
.	2e	4c	[2cc
.	.	4d	.
=66	=66	=66	=66
0r	2c	4e	2cc]
.	.	4f#	.
.	2G	2.g	2b
.	[1d	.	1a
.	.	8f#	.
.	.	8e	.
.	.	2f#	.
=67	=67	=67	=67
1G	1d]	2.g	1b
.	.	4f	.
2.A	2r	2e	2r
.	2c	2a	2cc
4B	.	.	.
=68	=68	=68	=68
2c	2e	2g	2cc
2A	2f	2c	2cc
1G	1g	1d	1b
=69	=69	=69	=69
2.A	2f	1c	1.a
.	1e	.	.
4G	.	.	.
2F	.	2c	.
2F	2d	2A	2a
=70	=70	=70	=70
0C	2.e	2r	1g
.	.	2c	.
.	4f	.	.
.	1g	2.e	2r
.	.	.	2cc
.	.	4f	.
=71	=71	=71	=71
0r	0r	2g	2ee
.	.	2a	2ff
.	.	4b	1gg
.	.	8a	.
.	.	8b	.
.	.	2cc	.
=72	=72	=72	=72
2r	0r	2a	2ff
2G	.	2g	1ee
2A	.	1f	.
2B	.	.	2dd
=73	=73	=73	=73
2.c	2r	1e	1.ee
.	2c	.	.
4B	.	.	.
1A	2e	1r	.
.	2f	.	4dd
.	.	.	4cc
=74	=74	=74	=74
2G	4g	2r	2b
.	4f	.	.
2.A	4e	2c	2cc
.	4d	.	.
.	2c	2e	1a
4G	.	.	.
2F	[2d	2f	.
=75	=75	=75	=75
2E	4d]	1g	0r
.	4c	.	.
2C	1c	.	.
1D	.	1f	.
.	2B	.	.
=76	=76	=76	=76
1C	1c	2e	2r
.	.	2g	2cc
1r	2r	2cc	2ee
.	2d	2a	2ff
=77	=77	=77	=77
1G	2d	1b	4gg
.	.	.	4ff
.	2e	.	4ee
.	.	.	4dd
2A	1f	2a	2cc
2B	.	2d	[2dd
=78	=78	=78	=78
1c	2.e	1g	4dd]
.	.	.	4cc
.	.	.	1cc
.	8d	.	.
.	8c	.	.
1G	1d	1g	.
.	.	.	2b
=79	=79	=79	=79
1C	1e	1g	1cc
1r	1r	1r	1r
=80	=80	=80	=80
0F	0f	0a	0cc
=81	=81	=81	=81
1G	1d	1g	1b
1D	1d	1f#	1a
=82	=82	=82	=82
1G	1d	2g	1b
.	.	2.g	.
1C	1e	.	1g
.	.	4f	.
.	.	4e	.
.	.	4d	.
=83	=83	=83	=83
2.F	1.f	1c	1.a
4E	.	.	.
1D	.	1d	.
.	4e	.	2b
.	4d	.	.
=84	=84	=84	=84
1C	2.e	[0g	1cc
.	4d	.	.
2r	1c	.	2r
[2c	.	.	2cc
=85	=85	=85	=85
4c]	1G	1g]	1dd
8B	.	.	.
8A	.	.	.
2B	.	.	.
1c	[1g	2r	[1ee
.	.	[2cc	.
=86	=86	=86	=86
1G	2g]	4cc]	2ee]
.	.	8b	.
.	.	8a	.
.	2g	2b	2dd
4c	2g	2cc	1ee
4B	.	.	.
4A	[2a	2cc	.
4G	.	.	.
=87	=87	=87	=87
4F	4a]	1a	1.ff
4E	4g	.	.
1D	4f	.	.
.	4e	.	.
.	2d	[1a	.
2C#	2e	.	2ee
=88	=88	=88	=88
1D	1f	1a]	1dd
1A	1e	1a	1cc#
=89	=89	=89	=89
2r	2r	2r	2r
1A	1e	1a	1cc#
2A	2e	2a	2cc#
=90	=90	=90	=90
1F	1A	1a	1dd
1E	1B	1g#	1ee
=91	=91	=91	=91
2.D	1d	1.a	1.ff
4E	.	.	.
2F	2c	.	.
2F	[2c	2a	2ff
=92	=92	=92	=92
1C	4c]	2g	1ee
.	4d	.	.
.	4e	1cc	.
.	4c	.	.
1G	[1d	.	2r
.	.	[2b	[2gg
=93	=93	=93	=93
2.D	1d]	2b]	2gg]
.	.	2.a	1ff
4E	.	.	.
2F	2r	.	.
.	.	4b	.
2C	[2g	2cc	[2ee
=94	=94	=94	=94
2.D	2g]	2b	2ee]
.	1f	4a	1dd
4E	.	4g	.
4F	.	1a	.
4G	.	.	.
4A	[2e	.	[2cc
4B	.	.	.
=95	=95	=95	=95
2c	2e]	1g	4cc]
.	.	.	8b
.	.	.	8a
2G	1d	.	2b
1A	.	2.e	2.cc
.	[2c	.	.
.	.	4f	4dd
=96	=96	=96	=96
1G	4c]	[0g	2ee
.	8B	.	.
.	8A	.	.
.	2B	.	2.dd
2.E	1e	.	.
.	.	.	4cc
.	.	.	[2cc
4F	.	.	.
=97	=97	=97	=97
[0G	[0d	1g_	2cc]
.	.	.	4b
.	.	.	4a
.	.	1g_	2.b
.	.	.	4cc
=98	=98	=98	=98
0G]	0d]	0g]	0b
*	*	*	*-
!! Crucifixus
*Ibass	*Itenor	*Icalto
!Bassus	!Tenor	!Altus
*clefF4	*clefGv2	*clefG2
*k[]	*k[]	*k[]
*C:ion	*C:ion	*C:ion
*M4/2	*M4/2	*M4/2
=99	=99	=99
1r	0c	0r
[1c	.	.
=100	=100	=100
1c]	1e	0r
1A	1f	.
=101	=101	=101
1B	1g	0r
1c	2r	.
.	[2g	.
=102	=102	=102
1.c	2g]	0r
.	2f	.
.	2e	.
2B	2d	.
=103	=103	=103
2A	2f	1r
2G	2.e	.
2.A	.	[1c
.	4d	.
.	4c	.
4G	4B	.
=104	=104	=104
4F	4A	1c]
4E	4G	.
2F	2A	.
2.E	2G	1e
.	[2c	.
8D	.	.
8C	.	.
=105	=105	=105
1D	2c]	1f
.	2B	.
2C	[1e	1g
[2c	.	.
=106	=106	=106
2c]	2e]	2r
2B	2d	1g
1A	[1c	.
.	.	2f
=107	=107	=107
1G	2c]	2e
.	2B	2d
4F	4A	2f
4G	4B	.
4A	4c	[2e
4B	4d	.
=108	=108	=108
1c	1e	4e]
.	.	4d
.	.	1c
1G	1d	.
.	.	2B
=109	=109	=109
2r	[0c	2c
2C	.	2g
[1F	.	[1a
=110	=110	=110
2F]	1c]	2a]
2E	.	2g
2D	2r	2f
2C	2g	2e
=111	=111	=111
4F	1.a	1f
4G	.	.
4A	.	.
4B	.	.
2.c	.	1e
.	2g	.
4B	.	.
=112	=112	=112
2A	2f	0r
2G	2e	.
2.A	4f	.
.	4e	.
.	[2e	.
4G	.	.
=113	=113	=113
1F	4e]	2r
.	8d	.
.	8c	.
.	2d	1a
1E	2e	.
.	[2e	2g
=114	=114	=114
0r	2e]	2cc
.	2d	2b
.	2f	2a
.	2e	2g
=115	=115	=115
2r	2d	2f
1A	2c	4e
.	.	4d
.	1B	[1e
2G	.	.
=116	=116	=116
2c	2A	1e]
2B	2G	.
2A	2c	2r
2G	2B	[2e
=117	=117	=117
1F	2A	2e]
.	2A	2d
1E	2B	[1g
.	[2e	.
=118	=118	=118
2C	2e]	2g]
2D	2d	2f
2E	2.g	2e
2G	.	2d
.	4f	.
=119	=119	=119
1C	2e	2.c
.	2d	.
.	.	4d
1C	1c	1e
=120	=120	=120
1G	1B	1d
1r	1r	1r
!! Et resurrexit
*Ibass	*Itenor	*Icalto
!Bassus	!Tenor	!Altus
*clefF4	*clefGv2	*clefG2
*k[]	*k[]	*k[]
*C:ion	*C:ion	*C:ion
*M3/2	*M3/2	*M3/2
=121	=121	=121
2G	2B	2d
2E	2c	2e
2D	2d	2f
=122	=122	=122
4C	2.e	2.g
4D	.	.
4E	.	.
4F	4d	4f
2G	2B	2d
=123	=123	=123
2C	2c	2e
2c	2e	1g
2B	2d	.
=124	=124	=124
2A	2c	2f
2.G	2.B	2e
.	.	2d
4F	4A	.
=125	=125	=125
2G	2B	2e
2.A	2.c	2.f
4G	4B	4e
=126	=126	=126
2E	2G	1e
2F	2A	.
2G	2B	2d
=127	=127	=127
1.C	2c	2e
.	2r	2g
.	2c	2a
=128	=128	=128
1r	2d	2b
.	2e	2.cc
2r	2f	.
.	.	4a
=129	=129	=129
2r	4g	4b
.	4f	4a
2G	4e	4g
.	4d	4f
2A	2c	2e
=130	=130	=130
2B	2G	2d
2.c	2g	2.e
.	2c	.
4A	.	4f
=131	=131	=131
2B	2d	4g
.	.	4f
2.c	2.e	4e
.	.	4d
.	.	4c
4B	4d	4d
=132	=132	=132
2A	1c	4e
.	.	4c
1G	.	1d
.	2B	.
!! Et ascendit
*Ibass	*Itenor	*Icalto
!Bassus	!Tenor	!Altus
*clefF4	*clefGv2	*clefG2
*k[]	*k[]	*k[]
*C:ion	*C:ion	*C:ion
*M4/2	*M4/2	*M4/2
=133	=133	=133
0C	1c	1e
.	2r	2r
.	2e	2g
=134	=134	=134
0r	2f	2a
.	2e	2cc
.	2d	2b
.	[2f	2a
=135	=135	=135
0r	4f]	2.cc
.	4e	.
.	4c	.
.	4d	4b
.	4e	4g
.	4f	4a
.	4g	4b
.	4e	4g
=136	=136	=136
1r	2f	4a
.	.	4b
.	2e	2.cc
1G	1d	.
.	.	8b
.	.	8a
.	.	2b
=137	=137	=137
2A	2r	2.e
2c	2c	.
.	.	4f
2B	2d	2g
2A	2f	2a
=138	=138	=138
2.c	2e	1g
.	2.g	.
4B	.	.
4G	.	1r
4A	4f	.
4B	4d	.
4G	4e	.
=139	=139	=139
4A	4f	0r
4B	4g	.
1c	2e	.
.	1d	.
2B	.	.
=140	=140	=140
1c	1e	1g
1r	1g	1e
=141	=141	=141
1c	1e	2r
.	.	2g
1A	2r	2.cc
.	2c	.
.	.	4b
=142	=142	=142
2r	2.f	2a
2F	.	2cc
.	4e	.
2G	2d	2b
2A	[2c	[2a
=143	=143	=143
2F	4c]	2a]
.	4d	.
2G	2B	2.g
1D	1A	.
.	.	8f#
.	.	8e
.	.	2f#
=144	=144	=144
1G	0B	1g
1E	.	1g
=145	=145	=145
1r	1g	1e
1c	1e	2r
.	.	2g
=146	=146	=146
1A	2r	2.cc
.	2c	.
.	.	4b
2r	2.f	2.a
2F	.	.
.	4e	4g
=147	=147	=147
2.B-	2d	4f
.	.	4e
.	2f	2d
4A	.	.
2G	2e	2g
2B-	[2d	4f
.	.	4e
=148	=148	=148
1A	4d]	4f
.	4c	4e
.	1c	4e
.	.	8d
.	.	8c
1G	.	1d
.	2B	.
=149	=149	=149
0C	0c	0e
*-	*-	*-
!! Et iterum
**kern	**kern	**kern	**kern
*Ibass	*Itenor	*Icalto	*Icant
!Bassus	!Tenor	!Altus	!Cantus
*clefF4	*clefGv2	*clefG2	*clefG2
*k[]	*k[]	*k[]	*k[]
*C:ion	*C:ion	*C:ion	*C:ion
*M4/2	*M4/2	*M4/2	*M4/2
=150	=150	=150	=150
0r	0r	2r	1cc
.	.	2cc	.
.	.	2a	2ee
.	.	2a	2ff
=151	=151	=151	=151
0r	0r	2g	1gg
.	.	2e	.
.	.	1a	2ff
.	.	.	[2ee
=152	=152	=152	=152
1r	1r	1f	2ee]
.	.	.	2dd
1c	2r	1e	2ee
.	2c	.	2ee
=153	=153	=153	=153
2A	2e	0r	2cc
2A	2f	.	2cc
2G	1g	.	1b
2E	.	.	.
=154	=154	=154	=154
1A	2f	1cc	0r
.	1e	.	.
1F	.	2a	.
.	2d	2a	.
=155	=155	=155	=155
1E	1e	2g	2r
.	.	2e	2gg
1r	2r	1a	2ff
.	2A	.	[2ee
=156	=156	=156	=156
1D	2A	1f	4ee]
.	.	.	8dd
.	.	.	8cc
.	2B	.	2dd
2.A	2.c	2e	2ee
.	.	2A	2ee
4B	4d	.	.
=157	=157	=157	=157
2c	4e	2A	2ee
.	4f	.	.
2G	1g	2B	2dd
2A	.	2.c	1cc
2A	2f#	.	.
.	.	4d	.
=158	=158	=158	=158
1G	1g	4e	2.b
.	.	4f	.
.	.	1g	.
.	.	.	8a
.	.	.	8g
1r	1d	.	2a
.	.	2f#	2a
=159	=159	=159	=159
0G	1r	1g	1b
.	1d	2r	2r
.	.	[2g	[2b
=160	=160	=160	=160
1E	1e	2g]	2b]
.	.	2g	2cc
2.D	[1f	[1a	1dd
4E	.	.	.
=161	=161	=161	=161
4F	2f]	1a]	2.cc
4G	.	.	.
4A	2.e	.	.
4B	.	.	4dd
1c	.	1g	1ee
.	4d	.	.
.	4e	.	.
.	4f	.	.
=162	=162	=162	=162
1G	2g	1b	0dd
.	2g	.	.
1r	2f	2a	.
.	2g	2b	.
=163	=163	=163	=163
0r	2.a	2.cc	2r
.	.	.	2ee
.	4g	4b	.
.	2f	2a	2dd
.	2e	2g	2ee
=164	=164	=164	=164
2r	1d	0a	2.ff
2.d	.	.	.
.	.	.	4ee
.	2r	.	2dd
8c	.	.	.
8B	.	.	.
2A	2e	.	2cc
=165	=165	=165	=165
2B	2d	1g	2dd
2c	2e	.	2.cc
1F	2.f	1a	.
.	.	.	4b
.	.	.	4cc
.	4e	.	4a
=166	=166	=166	=166
2G	2d	2g	2b
2A	2c	2f#	1cc
1G	1d	1g	.
.	.	.	2b
=167	=167	=167	=167
0C	1c	0e	0cc
.	2r	.	.
.	[2c	.	.
=168	=168	=168	=168
1F	2c]	0r	0r
.	2d	.	.
2G	2.e	.	.
[2A	.	.	.
.	4f	.	.
=169	=169	=169	=169
4A]	2e	0r	0r
4A	.	.	.
2B	2d	.	.
2.c	2e	.	.
.	[2g	.	.
8B	.	.	.
8A	.	.	.
=170	=170	=170	=170
2G	4g]	0r	0r
.	4f	.	.
2.A	4e	.	.
.	4d	.	.
.	4c	.	.
8G	4d	.	.
8F	.	.	.
2E	[2e	.	.
=171	=171	=171	=171
2.F	2e]	2r	1r
.	2d	1a	.
4F	.	.	.
1E	1e	.	2r
.	.	2g	[2ee
=172	=172	=172	=172
0r	0r	2e	2ee]
.	.	2f	2dd
.	.	2g	2b
.	.	4f	2cc
.	.	4e	.
=173	=173	=173	=173
0r	2r	2.d	2.dd
.	1d	.	.
.	.	4e	8cc
.	.	.	8b
.	.	4f	4a
.	.	4g	4b
.	2c	[2a	[2cc
=174	=174	=174	=174
0r	2A	2a]	2cc]
.	2B	1g	2b
.	2c	.	1a
.	2d	2f#	.
=175	=175	=175	=175
2r	1e	4g	0g
.	.	4f	.
1c	.	4e	.
.	.	4d	.
.	2r	1e	.
2c	[2g	.	.
=176	=176	=176	=176
2B	2g]	0r	0r
2A	2f	.	.
2c	2e	.	.
2B	2d	.	.
=177	=177	=177	=177
2A	2f	0r	0r
2.G	2e	.	.
.	2d	.	.
4F	.	.	.
4E	[2e	.	.
4D	.	.	.
=178	=178	=178	=178
4C	4e]	0r	0r
4D	4d	.	.
2E	4c	.	.
.	4B	.	.
2F#	2A	.	.
[2G	2G	.	.
=179	=179	=179	=179
2G]	1A	1r	1r
2F#	.	.	.
2G	2G	2r	2r
[2G	[2d	[2g	[2b
=180	=180	=180	=180
2G]	2d]	2g]	2b]
2G	2d	2g	2b
1c	1e	1g	1cc
=181	=181	=181	=181
2G	2d	2g	2b
2B	2d	2g	2dd
2.A	2e	2a	2cc
.	2f#	2a	2cc
4A	.	.	.
=182	=182	=182	=182
1G	2.g	2d	2b
.	.	1g	1b
.	8f	.	.
.	8e	.	.
1r	1d	.	.
.	.	2f#	2a
=183	=183	=183	=183
1.G	2r	1.g	2.b
.	1B	.	.
.	.	.	4cc
.	.	.	[1dd
2F#	2A	2a	.
=184	=184	=184	=184
2G	2B	1g	2dd]
2E	2c#	.	2ee
[1D	2.d	2.f	[1ff
.	8c	4g	.
.	8B	.	.
=185	=185	=185	=185
1D]	2A	2a	1ff]
.	2B	2d	.
1C	2c	1g	1ee
.	2e	.	.
=186	=186	=186	=186
2r	2e	2r	1b
2G	2d	2g	.
2G	4e	2g	2b
.	4d	.	.
2F#	[2d	2a	2a
=187	=187	=187	=187
2G	4d]	2g	2b
.	4G	.	.
2E	2.c	2g	2cc
1D	.	1f	1dd
.	8B	.	.
.	8A	.	.
.	2B	.	.
=188	=188	=188	=188
1C	2c	2e	1ee
.	1e	1g	.
1r	.	.	2r
.	2f	2a	[2dd
=189	=189	=189	=189
0r	2g	2b	2dd]
.	2e	2g	2ee
.	1d	1a	2ff
.	.	.	2dd
=190	=190	=190	=190
1r	2.c	1cc	2ee
.	.	.	2.gg
.	4d	.	.
2r	1e	2b	.
.	.	.	4ff
[2A	.	[2cc	4ee
.	.	.	4dd
=191	=191	=191	=191
2A]	1f	2cc]	2cc
2B	.	4b	2dd
.	.	4a	.
2c	2e	4g	1ee
.	.	4e	.
2A	2c	2a	.
=192	=192	=192	=192
2B	1g	2d	2dd
2.c	.	2g	2.ee
.	2e	2g	.
4B	.	.	4dd
4A	[2f	[2a	4cc
4G	.	.	4b
=193	=193	=193	=193
2F	4f]	4a]	2a
.	4e	4g	.
2A	4d	4f	1cc
.	4c	4e	.
1G	1d	1g	.
.	.	.	2b
=194	=194	=194	=194
1C	2c	1g	2cc
.	2e	.	2cc
1r	2f	2r	2dd
.	2e	2g	2ee
=195	=195	=195	=195
0r	1d	2a	1ff
.	.	2b	.
.	1c	1cc	2ee
.	.	.	2gg
=196	=196	=196	=196
2r	0r	2a	4ff
.	.	.	4ee
2G	.	2g	1ee
2A	.	2.f	.
2B	.	.	2dd
.	.	4f	.
=197	=197	=197	=197
1c	2r	1e	1ee
.	2c	.	.
2B	2d	2r	1r
2c	2e	2g	.
=198	=198	=198	=198
4F	1f	2a	0r
4G	.	.	.
4A	.	2a	.
4B	.	.	.
2.c	2e	4g	.
.	.	4f	.
.	2g	4e	.
4B	.	4d	.
=199	=199	=199	=199
2.A	2f	1c	2r
.	2e	.	2cc
4G	.	.	.
2F	2d	2A	2dd
2E	[2c	2G	2ee
=200	=200	=200	=200
2D	4c]	2d	2.ff
.	8B	.	.
.	8A	.	.
2D	2B	2d	.
.	.	.	4ff
1C	1c	2G	2ee
.	.	2c	2gg
=201	=201	=201	=201
2r	0r	2d	2ff
2G	.	2e	1ee
2A	.	2.f	.
2B	.	.	2dd
.	.	4f	.
=202	=202	=202	=202
2.c	2r	2.e	1ee
.	2c	.	.
4c	.	4f	.
2B	2d	1g	1r
2c	2e	.	.
=203	=203	=203	=203
4F	2.f	1a	0r
4G	.	.	.
4A	.	.	.
4B	4f	.	.
2.c	2e	4g	.
.	.	4f	.
.	2g	4e	.
4B	.	4d	.
=204	=204	=204	=204
2A	4f	2c	1r
.	4e	.	.
2G	1e	2B	.
2F	.	2A	2r
2F	2d	2a	2a
=205	=205	=205	=205
1E	1e	2a	2cc
.	.	2g#	2b
2r	2r	2.a	4a
.	.	.	4b
2A	2A	.	4cc
.	.	8g	4dd
.	.	8f	.
=206	=206	=206	=206
2A	2c	0e	0ee
2G#	2B	.	.
2.A	4A	.	.
.	4B	.	.
.	4c	.	.
4B	4d	.	.
=207	=207	=207	=207
2c	2e	0r	0r
2A	2f	.	.
2B	2g	.	.
2c	2e	.	.
=208	=208	=208	=208
1d	1f	1r	2r
.	.	.	1dd
1A	2e	2r	.
.	[2f	[2a	2cc
=209	=209	=209	=209
0r	2f]	2a]	2dd
.	2e	2g	2ee
.	2d	2a	2ff
.	2d	2b	2dd
=210	=210	=210	=210
0r	2c	2cc	2ee
.	2d	2a	2ff
.	2G	2b	4gg
.	.	.	4ff
.	4A	4cc	4ee
.	4B	4b	4dd
=211	=211	=211	=211
0r	4c	4a	4cc
.	4d	4g	4b
.	2e	1g	4b
.	.	.	8a
.	.	.	8g
.	1d	.	1a
.	.	2f#	.
=212	=212	=212	=212
1r	1G	2g	1b
.	.	1g	.
[1c	2r	.	[1ee
.	[2g	[2e	.
=213	=213	=213	=213
1c]	2g]	2e]	1ee]
.	2.e	2.cc	.
1A	.	.	1cc
.	8d	4b	.
.	8e	.	.
.	2f	[2a	.
=214	=214	=214	=214
1B	2.d	4a]	1dd
.	.	8g#	.
.	.	8f#	.
.	.	2g#	.
.	4e	.	.
1A	4f	2a	1cc
.	4e	.	.
.	4e	[2cc	.
.	8d	.	.
.	8c	.	.
=215	=215	=215	=215
1G	1d	2cc]	1gg
.	.	2b	.
1A	1c	2.a	2ff
.	.	.	[2ee
.	.	8g	.
.	.	8f	.
=216	=216	=216	=216
2.c	2r	1e	4ee]
.	.	.	4dd
.	1g	.	1cc
4c	.	.	.
1d	.	1f	.
.	2f	.	2b
=217	=217	=217	=217
1c	2f	1g	1cc
.	2e	.	.
1r	1a	2f	1cc
.	.	[2f	.
=218	=218	=218	=218
1c	1g	2f]	2r
.	.	1e	1cc
1G	2r	.	.
.	2g	[2d	2b
=219	=219	=219	=219
1A	2f	2d]	0a
.	2e	2c	.
1F	2d	2.f	.
.	2c	.	.
.	.	4e	.
=220	=220	=220	=220
0G	2B	2d	0g
.	2e	1c	.
.	1d	.	.
.	.	2B	.
=221	=221	=221	=221
[0C	1g	2c	[0e
.	.	2c	.
.	2r	2A	.
.	2c	2G	.
=222	=222	=222	=222
0C]	2A	2.c	1e]
.	2G	.	.
.	.	4d	.
.	1c	4e	2r
.	.	4f	.
.	.	4g	2cc
.	.	4e	.
=223	=223	=223	=223
0r	2d	2f	2a
.	2e	2g	2g
.	[1f	2a	1cc
.	.	4a	.
.	.	4g	.
=224	=224	=224	=224
0r	2f]	4a	2dd
.	.	4b	.
.	2e	1cc	2ee
.	1d	.	[1ff
.	.	2b	.
=225	=225	=225	=225
1r	4c	2cc	2ff]
.	4d	.	.
.	4e	4b	2ee
.	4f	4a	.
1G	4g	1b	4dd
.	4a	.	4cc
.	[2g	.	4b
.	.	.	4a
=226	=226	=226	=226
2E	4g]	1g	2b
.	4f	.	.
2C	2e	.	1cc
1G	1d	2r	.
.	.	2g	2b
=227	=227	=227	=227
2A	2r	2e	2cc
2B	2g	2d	2dd
[1c	2e	1g	1ee
.	4c	.	.
.	4d	.	.
=228	=228	=228	=228
2c]	4e	2a	0r
.	4f	.	.
2B	1g	2b	.
1A	.	[1cc	.
.	2f	.	.
=229	=229	=229	=229
1G	2e	2cc]	1r
.	2d	2b	.
2.F	[1f	1a	2r
.	.	.	2cc
4G	.	.	.
=230	=230	=230	=230
4A	2f]	2.cc	2a
4B	.	.	.
2.c	2e	.	2g
.	.	8b	.
.	.	8a	.
.	4e	2g	1cc
4B	4d	.	.
4A	4c	[2a	.
4G	4B	.	.
=231	=231	=231	=231
2F	2A	2a]	2dd
2E	1c	2g	2ee
1D	.	2.f	[1ff
.	2B	.	.
.	.	4g	.
=232	=232	=232	=232
1C	2r	4a	2ff]
.	.	4b	.
.	2c	1cc	2ee
1r	2A	.	2cc
.	2G	4b	2dd
.	.	4a	.
=233	=233	=233	=233
0r	1c	2g	2.ee
.	.	1a	.
.	.	.	8dd
.	.	.	8cc
.	2d	.	1b
.	2e	2g#	.
=234	=234	=234	=234
1F	1.f	1a	2a
.	.	.	4f
.	.	.	4g
2D	.	2r	4a
.	.	.	4b
2C	2e	2g	[2cc
=235	=235	=235	=235
1G	1d	2.g	4cc]
.	.	.	8b
.	.	.	8a
.	.	.	2b
.	.	4f	.
2A	2r	2e	2cc
2B	[2g	2d	2dd
=236	=236	=236	=236
1.c	4g]	4c	2ee
.	4f	4d	.
.	4e	4e	2cc
.	4d	4f	.
.	2c	1g	2ee
2B	2d	.	[2dd
=237	=237	=237	=237
1A	2e	2a	4dd]
.	.	.	4cc
.	4d	2f	1cc
.	4c	.	.
1G	1d	1g	.
.	.	.	2b
=238	=238	=238	=238
0C	0c	0e	0cc
==	==	==	==
*-	*-	*-	*-
!!!CDT: 1525/^1526/-1594/2/2
!!!OCY: Italia
!!!AGN: Mass (Paraphrase)
!!!AST: renaissance, vocal
!!!ASW: Antiphon
!!!PWK: Masses, Book 9
!!!RNB: Cadence finals: G
!!!YOR: Le Opere Complete, v. 25, p. 1
!!!YOO: Rome, Italy: Fratelli Scalera
!!!END: 1992//
!!!EED: John Miller
!!!YEC: Copyright 2000, John Miller
!!!YEN: United States of America
!!!YEM: Rights to all derivative electronic formats reserved.
!!!YEM: Refer to licensing agreement for further details.
!!!YEM: This file must be accompanied by the licensing agreement.
!!!YEM: A copy of the licensing agreement may be found at http://www.music-cog.ohio-state.edu/HumdrumDatabases/Palestrina/license.txt
!!!EMD: converted to Humdrum by Bret Aarden
